app/content/themes/irontheme/images/general/star.svg

<svg width="811" height="771" viewBox="0 0 811 771" fill="none" xmlns="http://www.w3.org/2000/svg"><g clip-path="url(#clip0)"><path d="M463.264 345.303L811 327.105l-72.493-72.332-193.544 3.456-81.699 87.074z" fill="url(#paint0_linear)"/><path d="M347.506 59.662l115.758 285.641 81.699-87.074L438.87 0l-91.364 59.662z" fill="url(#paint1_linear)"/><path d="M347.506 59.662l-52.471 181.29L371.9 349.91l34.06-146.046-58.454-144.202z" fill="url(#paint2_linear)"/><path d="M295.035 240.952L0 254.543l171.452 100.896L371.9 349.91l-76.865-108.958z" fill="url(#paint3_linear)"/><path d="M311.144 437.676L0 254.543l37.972 109.419L185.95 460.25l125.194-22.574z" fill="url(#paint4_linear)"/><path d="M277.084 602.61l34.06-164.934L185.95 460.25l-67.2 277.579L277.084 602.61z" fill="url(#paint5_linear)"/><path d="M118.75 737.829L395.9 501.196l1.315 130.9-148.208 105.733H118.75z" fill="url(#paint6_linear)"/><path d="M395.9 501.196l275.177 167.296L648.294 771 397.215 632.095 395.9 501.196z" fill="url(#paint7_linear)"/></g><defs><linearGradient id="paint0_linear" x1="463.559" y1="345.715" x2="811" y2="345.715" gradientUnits="userSpaceOnUse"><stop stop-color="#BD0705"/><stop offset="1" stop-color="#FD0302"/></linearGradient><linearGradient id="paint1_linear" x1="446.187" y1="0" x2="446.187" y2="345.715" gradientUnits="userSpaceOnUse"><stop stop-color="#B4000E"/><stop offset="1" stop-color="#D70016"/></linearGradient><linearGradient id="paint2_linear" x1="405.957" y1="195.265" x2="295.312" y2="248.286" gradientUnits="userSpaceOnUse"><stop stop-color="#930105"/><stop offset="1" stop-color="#D30015"/></linearGradient><linearGradient id="paint3_linear" x1="372.128" y1="355.776" x2="-.014" y2="258.883" gradientUnits="userSpaceOnUse"><stop stop-color="#D90017"/><stop offset="1" stop-color="#B4000D"/></linearGradient><linearGradient id="paint4_linear" x1="0" y1="254.256" x2="310.919" y2="445.78" gradientUnits="userSpaceOnUse"><stop stop-color="#D80118"/><stop offset="1" stop-color="#B3000D"/></linearGradient><linearGradient id="paint5_linear" x1="185.489" y1="459.207" x2="275.564" y2="603.719" gradientUnits="userSpaceOnUse"><stop stop-color="#D80016"/><stop offset="1" stop-color="#B4000D"/></linearGradient><linearGradient id="paint6_linear" x1="118.861" y1="738.075" x2="396.884" y2="501.278" gradientUnits="userSpaceOnUse"><stop stop-color="#B3000D"/><stop offset="1" stop-color="#D60016"/></linearGradient><linearGradient id="paint7_linear" x1="395.9" y1="501.196" x2="671.153" y2="666.207" gradientUnits="userSpaceOnUse"><stop stop-color="#B3000D"/><stop offset="1" stop-color="#D90017"/></linearGradient><clipPath id="clip0"><path transform="matrix(-1 0 0 1 811 0)" fill="#fff" d="M0 0h811v771H0z"/></clipPath></defs></svg>

<svg width="811" height="771" viewBox="0 0 811 771" fill="none" xmlns="http://www.w3.org/2000/svg">
<g clip-path="url(#clip0)">
<path d="M463.264 345.303L811 327.105L738.507 254.773L544.963 258.229L463.264 345.303Z" fill="url(#paint0_linear)"/>
<path d="M347.506 59.6621L463.264 345.303L544.963 258.229L438.87 0L347.506 59.6621Z" fill="url(#paint1_linear)"/>
<path d="M347.506 59.662L295.035 240.952L371.9 349.91L405.96 203.864L347.506 59.662Z" fill="url(#paint2_linear)"/>
<path d="M295.035 240.952L6.10352e-05 254.543L171.452 355.439L371.9 349.91L295.035 240.952Z" fill="url(#paint3_linear)"/>
<path d="M311.144 437.676L-6.10352e-05 254.543L37.9724 363.962L185.95 460.25L311.144 437.676Z" fill="url(#paint4_linear)"/>
<path d="M277.084 602.61L311.144 437.676L185.95 460.25L118.75 737.829L277.084 602.61Z" fill="url(#paint5_linear)"/>
<path d="M118.75 737.829L395.9 501.196L397.215 632.096L249.007 737.829H118.75Z" fill="url(#paint6_linear)"/>
<path d="M395.9 501.196L671.077 668.492L648.294 771L397.215 632.095L395.9 501.196Z" fill="url(#paint7_linear)"/>
</g>
<defs>
<linearGradient id="paint0_linear" x1="463.559" y1="345.715" x2="811" y2="345.715" gradientUnits="userSpaceOnUse">
<stop stop-color="#BD0705"/>
<stop offset="1" stop-color="#FD0302"/>
</linearGradient>
<linearGradient id="paint1_linear" x1="446.187" y1="-5.99631e-05" x2="446.187" y2="345.715" gradientUnits="userSpaceOnUse">
<stop stop-color="#B4000E"/>
<stop offset="1" stop-color="#D70016"/>
</linearGradient>
<linearGradient id="paint2_linear" x1="405.957" y1="195.265" x2="295.312" y2="248.286" gradientUnits="userSpaceOnUse">
<stop stop-color="#930105"/>
<stop offset="1" stop-color="#D30015"/>
</linearGradient>
<linearGradient id="paint3_linear" x1="372.128" y1="355.776" x2="-0.0140254" y2="258.883" gradientUnits="userSpaceOnUse">
<stop stop-color="#D90017"/>
<stop offset="1" stop-color="#B4000D"/>
</linearGradient>
<linearGradient id="paint4_linear" x1="-6.73843e-05" y1="254.256" x2="310.919" y2="445.78" gradientUnits="userSpaceOnUse">
<stop stop-color="#D80118"/>
<stop offset="1" stop-color="#B3000D"/>
</linearGradient>
<linearGradient id="paint5_linear" x1="185.489" y1="459.207" x2="275.564" y2="603.719" gradientUnits="userSpaceOnUse">
<stop stop-color="#D80016"/>
<stop offset="1" stop-color="#B4000D"/>
</linearGradient>
<linearGradient id="paint6_linear" x1="118.861" y1="738.075" x2="396.884" y2="501.278" gradientUnits="userSpaceOnUse">
<stop stop-color="#B3000D"/>
<stop offset="1" stop-color="#D60016"/>
</linearGradient>
<linearGradient id="paint7_linear" x1="395.9" y1="501.196" x2="671.153" y2="666.207" gradientUnits="userSpaceOnUse">
<stop stop-color="#B3000D"/>
<stop offset="1" stop-color="#D90017"/>
</linearGradient>
<clipPath id="clip0">
<rect width="811" height="771" transform="matrix(-1 0 0 1 811 0)" fill="white"/>
</clipPath>
</defs>
</svg>
